local/share/icons/dracula-icons-main/16/actions/draw-highlight.svg

<?xml version="1.0" encoding="UTF-8"?>
<svg xmlns="http://www.w3.org/2000/svg" xmlns:xlink="http://www.w3.org/1999/xlink" width="16" height="16" viewBox="0 0 16 16">
<path fill-rule="nonzero" fill="rgb(100%, 100%, 100%)" fill-opacity="1" d="M 3.175781 0.53125 L 1.851562 1.585938 L 2.644531 2.378906 L 3.703125 1.058594 Z M 1.585938 1.851562 L 1.585938 2.382812 L 1.058594 2.910156 L 1.589844 2.910156 L 1.851562 2.644531 L 2.382812 2.644531 Z M 0.53125 3.175781 L 0.53125 3.703125 L 3.703125 3.703125 L 3.703125 3.175781 Z M 0.53125 3.175781 "/>
</svg>

<svg height="16" viewBox="0 0 4.233 4.233" width="16" xmlns="http://www.w3.org/2000/svg"><style type="text/css" id="current-color-scheme">
	.ColorScheme-Text {
		color:#FFFFFF;
	}
	</style><path d="M3.175.53L1.852 1.586l.794.794 1.058-1.323zM1.587 1.851v.53l-.529.528h.53l.264-.264h.53zM.53 3.175v.53h3.175v-.53z" class="ColorScheme-Text" fill="currentColor"/>
</svg>
